X:1322
T:C i G, Grind Hans Jässpodspolska
S:Efter Falu Spelmanslag
D:I Stöten, Tongång AWCD-18
Z:[[http://www.bluerose.karenlmyers.org/IncipitsPolskaRattvik7.html|Karen Myers (#1585)]]
Z:Upptecknad 7/2008
M:3/4
L:1/8
R:Polska
O:Rättvik, Dalarna
K:G
D2 G2 A>B | (3c2 (B2 G2) E2- | E2 cB A>G | (FG) (AF) D2- | D2 G2 A>B | (3c2 (B2 G2) E2- |
E2 (cB) A>G | FE/F/ G4 :: G>(B dc) B>A | (Gc) (ed) c>B | A>(B c/d/)c/A/ B>G |
(FG) (AF) D2- | D2 (dc) B>A | (Gc) (ed) c>B | A>(B c/d/)c/A/ B>G | FE/F/ G4 :|
(:musicend:)
Annan version:
(:music:)
